X: 1
T: Gaelic Gavotte
M: 4/4
L: 1/8
R: barndance
K: Dmaj
|:Ae ef dc dc|AG FA EB AG|Ae ef dc dc|AG FA d4:|
|:d2 AB de f2|gf ed (3efg a2|gf ed (3efg ag|1fe dB ~A3B:|2fe dB ~A3G||
Ae ef df e2-|ed ef gf ed|Ae ef df e2-|ed BA d4|
Ae ef df e2-|ed ef gf fa|Ae ef df e2-|ed BA d4|
|:a2 fa gf ed|(3efg af gf ed|(3efg af gf ed|ed BF A4:|
